X: 1757
T: Sevdim Yine Bir Âfet Gibi Yâr
C: Tanburî Mustafa Çavuş
O: Turkey
F: http://compmusic.upf.edu/node/140
N: huzzam--sarki--aksak--sevdim_yine--tanburi_mustafa_cavus
N: makam= huzzam
N: form= sarki
N: usul= aksak = 9/8
M: 9/8
L: 1/16
K: C _1/4B _3/4e ^3/4f 
Q: 1/4=126
%%MIDI tuningsystem comma53
f4 g3f e3/2d/eg f4 ed | d4e3ddc BABc defg  | 
w:  ARANAĞME  |   | 
f4 g3f e3/2d/eg f4 ed | d2 cBf2 eddc cBBc defg  | 
w:   |   | 
f4 g3f e3/2d/eg f4 ed | d4e3ddc BABc defg  | 
w:  ARANAĞME  |   | 
f4 g3f e3/2d/eg f4 ed | d2 cBf2 eddc cBB3cBc  | 
w:   |   | 
d4 dcBc d8 (3cBc | d3ef2 edd3/2e/ dcc2 d2cB  | 
w:  *  Sev *  *  *  dim   |  *  *  yi ne  *  bir   | 
B4 B2c2 d2e2 g2f2 e2 | d2 cBf2 ed{e}d4d2 dcBc  | \
w:  *  â *  fet   |  *  *  *  gi bi  *  *  yâr   SAZ  | 
d4 f2^e2 f8 g2 | 
w:  *  Çeşm_ *  i   | 
ag fed2 efg4g2 {_b}agfe  | d2{e}dc B2c2 d2e2 g2f2 e2 | 
w:  *  *  *  *  si ye *  hi   |  *  *  *  *  ey *  ler   | 
d3cdc cBB8z2  | z16  | c2d8-d2gfed | c2d4_1/4e2d3cB^AB2  | 
w:  *  *  di *  le  *  kâr    |  |  A man   |  a man   | 
z2Bcd2e2f2d2e2c2 | d6Bdc2AcB3/2A/G2  | \
w:  ben  *  *  sabr_ e *  de  |  mem   SAZ  | 
c2d8-d2gfed | 
w:  A man   | 
c2d4_1/4e2d3cB^AB2  | z2Bcd2e2f2d2e2c2 | \
w:  a man   |  ben  *  *  sabr_ e *  de  | 
d6fedcBcd4  | 
w:  mem   SAZ  | 
g2fga2{_b}gff2efg2fe | d3_1/4edcB^1/4ABcd_3/4efag2  | 
w:  Rahm_ *  *  *  *  *  *  ey  |  le  *  ba *  *  *  na    | 
g2fga2{_b}gff2efg2fe | d3_1/4edcB^1/4ABcd_3/4efag2  | 
w:  Rahm_ *  *  *  *  *  *  ey  |  le  *  ba *  *  *  na    | 
g2fga2{_b}gff2efg2fe | d3_1/4edcBABcd_3/4efag2  | 
w:  Rahm_ *  *  *  *  *  *  ey  |  le  *  ba *  *  *  na   | 
z18  | g2fg a2{_b}ag f2ed g2f2 e2 | d3cdc cBB8z2  | 
w:  |  ey  *  *  *  *  *  *  cil  |  *  *  ve *  li  *  yâr    | 
|


